X: 3768
T: Birthday Gift, The
R: jig
M: 6/8
K: Amajor
|:E2c cBc|A2F FAF|EFA AFA|cdc BcB|
A2c cBc|A2F FGF|1 E2e efe|cBA AFD:|2 E2e efe|cBA Acd:|
|:e3 fec|BcB Ace|a2a gag|faf ecd|
e2e efe|BcB A2c|def ecA|1 BcB Bcd:|2 B3 cAF||

